X:127
T:How Are You Now, My Maid
R:slip jig
B:
M:9/8
L:1/8
K:G
c|BdB c2 A A2 c|BGB d2 G G2 c|Bcd e2 A A2 g|fef g2 G G2||
M:6/8
c|Bcd def|gag g2 d|gfe dBd|e2 A A2 c|
Bcd def|gag g2 d|gfe dgd|B2 G G2||
